X:1
T:Sonata for Viola da Gamba and Harpsichord (No.2) D major
T:Sonata per a viola de gamba i clavecí Núm.2 en re major, BWV 1028 
T:J. S. Bach
T:Public Domain
T:Public Domain
T:Public Domain
T:Public Domain
T:Public Domain
T:Public Domain
T:Public Domain
T:Public Domain
T:Public Domain
T:Public Domain
T:Public Domain
T:Public Domain
T:Public Domain
T:Public Domain
C:Bach, Johann Sebastian
Z:Public Domain
%%score ( 1 2 ) { ( 3 5 6 ) | ( 4 7 ) }
L:1/8
Q:1/4=71
M:3/4
K:D
V:1 bass nm="Viola" snm="Vla."
V:2 bass 
V:3 treble nm="Clavicèmbal" snm="Clv."
V:5 treble 
V:6 treble 
V:4 bass 
V:7 bass 
V:1
"^Adagio" D2 z A, (B,3/2C/4D/4) |{G,} (TF,E,/D,/) (D4 | (D2) D/)(C/D/F/ E/D/C/D/) | %3
 (CB,/A,/) z2 z2 |[K:tenor] A2 z E F3/2^G/4A/4 | (CB,/A,/) ^D4 | EB, =G/^A,/(C/D/) (E/G/)(F/E/) | %7
 (TDC/B,/) ^E2 z2 | F2 z C D/F/^E/F/ | (A,^G,/F,/) (F4 | F3/2)G/4A/4 (G/F/E/D/ C/D/E/C/) | %11
 (T^A,^G,/F,/) (B,2 B,/)(^G/F/E/) | (D/C/)(D/B,/) T^A,3 B, | B,2 z2 z2 | %14
 z2 z[K:bass] B,{A,} (^G,3/2F,/4E,/4) | (CD/E/) (A,4 | %16
 A,/)(A,/B,/C/) F,/(F,/G,/A,/) (G,/F,/E,/D,/) | (B,=C/D/) (G,4 | %18
 G,/)(G,/A,/B,/) (A,/C/E/D/ C/B,/A,/G,/) | (F,/B,/A,/G,/) F,2 TE,>D, | (D,6 | D,3) (D/C/ DF/E/) | %22
{D} C6 |][M:2/4][K:tenor][Q:1/4=144]"^Allegro" D/E/ F2 (E/D/) | C/D/ E2 (D/C/) | %25
 (D/A,/)(F/A,/) (E/A,/)(D/A,/) | CA, CE | F/G/ A2 G/F/ | E/F/ G2 F/E/ | FD ((TCD)) | %30
 (E/D/C/)B,/ A,/G,/F,/E,/ | D,!tenuto!D/C/ D2- | D/=C/B,/D/ G/D/B,/G,/ | B,E/^D/ E2- | %34
 E/=D/C/E/ A/E/C/E/ | F F2 (E/^D/) | E E2 (=D/C/) | DC/B,/ A,/G,/F,/E,/ | %38
 F,/G,/A,/F,/ D,/F,/G,/A,/ | B,/C/D- D/(C/B,/A,/) | (^G,/A,/B,/)G,/ E,/G,/A,/B,/ | %41
 C/D/E- E/(D/C/B,/) | A,/B,/C/A,/ F,/A,/B,/C/ | D/E/(F F/)D/E/F/ | (^G,/A,/B,/)G,/ E,/G,/B,/D/ | %45
 (C/D/)(E/F/) (TB,>A,) | A,2 z[K:tenor] E | E/G/F/E/ DD- | D/B,/^G,/B,/ C,C- | %49
 C/E/C/A,/ F,/D/B,/^G,/ | E,2 z/[K:bass] E,/F,/^G,/ | A,/B,/ =C2 (B,/A,/) | ^G,/A,/ B,2 (A,/G,/) | %53
 E(D/^C/) (D/C/)(B,/C/) | A,4 :| A,4 |: z4 | z4 | z4 | z4 | A,/B,/ =C2 (B,/A,/) | %61
 (G,/F,/E,/D,/) (E,/F,/G,/A,/) | (B,/=C/D/E/) (D/C/B,/A,/) | (=C/B,/)(A,/B,/)[K:tenor] G,/B,/D/G/ | %64
 EG,=CE- | E/D/=C/B,/ A,/B,/C/E/ | ^DB,F,F- | FB, E/F/G- | G/F/E/D/ CF- | F/E/D/C/ B,G- | %70
 G/^A,/B,/C/ F,^A, | B,/C/ D2 (C/B,/) | (A,/^G,/F,/E,/) (F,/G,/A,/B,/) | (C/D/E/F/) (E/D/C/B,/) | %74
 (D/C/)(B,/C/) A,2 | z E/F/ G z | z F/G/ F/E/D/C/ | DF B2- | B/^G/A/F/{F} (T^E>F) | F4 | %80
 F/=G/ A2 (G/F/) | E/F/ G2 (F/E/) | (FD) (TCD) | (E/D/C/)B,/ A,/G,/F,/E,/ | %84
 (D,/E,/)(F,/E,/) D,/F,/A,/D/ | (C/D/)(E/D/) C/E/A,/C/ | (D/A,/)(F/A,/) (E/A,/)(D/A,/) | %87
 (C/D/E/)D/ C/B,/A,/G,/ | (F,/G,/A,/)F,/ D,/F,/A,/=C/ | B,/=C/D- D/(D,/E,/F,/) | %90
 (G,/A,/B,/)G,/ E,/G,/B,/D/ | C/D/E- E/(E/F/G/ | A) A2 (G/F/) | G G2 (F/E/) | %94
 F(E/D/) (F/E/)(D/C/) | D/A,/F,/D,/ =C2- | =C/A,/F,/D,/ (B,2 | B,/)G,/E,/C,/ A,2- | %98
 A,/F,/D,/B,,/ G,2- | G,/A,/C/E/ A/G/=F/E/ | =F/G/ A2 (G/F/) | E/=F/ G2 (F/E/) | %102
 (G/^F/)(E/D/) A,^C |1 D4 :|2 D4 |][M:12/8][K:bass][Q:1/4=92]"^Andante" F, | %106
 B,>DC B,(B,/4C/4D/C) PG,>F,E, TD,(C,/B,,/)(B, | %107
 B,)(A,/^G,/)(A, A,)(^G,/4F,/4^E,/)(F, F,/)(D/C/)(B,/C/)D/ (^E,/F,/^G,/B,/A,/G,/) | %108
 A,/B,/C{F}^E (F3[K:tenor] F)^E(G G/)E/F/G/A |{A} ^G3 (F3 F)(E/^D/)E ^D^G,^B, | %110
 (C3 C/)(G/F/E/^D/C/) G^G,T^B, C2 z | z6 z3 z z E | A>cB A(A/4B/4c/B) F>ED C(B,/A,/)B, | %113
 (C/B,/)(D/C/)(F/E/) (E/D/)(F/E/)(D/C/) (B,/A,/)(^G,/A,/)(B,/G,/) E,2 z | %114
 B,3 (A,3 A,)(=G,/F,/G,) TF,2 B, | E>GF E(E/4F/4G/F) =C>B,A, G,(F,/E,/)(E | %116
 E)(=D/=C/)(D D)(C/4B,/4A,/)(B, B,)TG,F,/E,/ E,2 B, | %117
{B,} ^A,>=GF TDC/B,/D T=C>B,C B,(=A,/G,/MA,/G,/4A,/4) | %118
 B,/=C/DC B,(E/D/C/B,/) (A,/G,/)(=C/B,/)(A,/B,/) G,2 z | z6 z3 z z A, | %120
 D>FE D(D/4E/4F/.E) E>GF E(E/4F/4G/.F) | F(F/4G/4A/.G) G(G/4A/4B/.A) TF>ED =C (TB,2 | %122
 B,3/2)(^C/4^D/4E/F/) G (TF2 F3/2)(E/4=D/4C/4D/4F/) ^A,2 F, | %123
 B,>DC B,(B,/4C/4D/C) G,>F,E, ^D,(C,/B,,/)B, | (3(G/F/E/) ET^D (TE3 (E6) | %125
 E>)(^DF/E/) (F3 F/)(^D/E/F/G) (G3 | G/)(F/4E/4D/C/B,/^A,/) (F3 F/)(=A/G/F/E/^D/) (E3 | %127
 E)(=D/C/)(D D)(C/4B,/4^A,/)(B, B,/)(G/F/)(E/F/)G/ (^A,/B,/C/E/D/C/) | %128
 (D/E/F)M^A, (B,3 B,)^A,(C C/)A,/B,/C/D | =C3 B,>(A,=C/B,/) A,/F,/G,/B,/A,/G,/{G,} F,2 (E/F/4G/4) | %130
 F^A,B, (E/D/E/G/F/E/) TD>CD C2 F, | B,>DC (B,B,/4C/4D/.C) C>ED (CC/4D/4E/.D) | %132
 (^DD/4E/4F/.E) (^EE/4F/4^G/.F) T=D>C.B, (TB,3 | (B,6) (B,6) | %134
 (B,3) B,/)(^A,/C/B,/)(C C/)F/F,^A, !fermata![D,F,B,]2 |][M:6/8][Q:1/4=144]"^Allegro" A,DE F2 z | %136
 A,EF G2 z | D/E/F/G/E/F/ D/E/F/G/E/F/ | D/E/F/E/F/G/ E/F/G/E/F/G/ | FA,/B,/A, A,F/E/D/F/ | %140
 FA,/B,/A, A,G/F/E/G/ | F/G/A/B/G/A/ F/G/A/B/G/A/ | F/G/A/G/A/B/ E/F/G/F/G/A/ | %143
 D/E/F/E/F/G/ C/D/E/D/E/F/ | B,/C/D/C/D/E/ CB,/A,/(D | D)TC3/2B,/4C/4 D/F,/G,/A,/B,/A,/ | %146
 B,/C/B,/A,/^G,/F,/ G,A,/B,/C | B,/A,<^G,A,/ A, (TA2 | A) (T^G2 G) (TF2 | F) (TE2 E) (D2 | %150
 D/)B,/C/D/E/D/ E/F<B,A,/ | A,E,/F,/E, E,C/B,/A,/C/ | B,E,/F,/E, E,D/C/B,/D/ | %153
 C/D/E/F/D/E/ C/D/E/F/D/E/ | C/D/E/C/D/E/ D2 z |[K:bass] F,B,C D2 z | F,CD E2 z | %157
 B,/C/D/E/C/D/ B,/C/D/E/C/D/ | B,FB (T^G2 G/)F/4G/4 | (A3 A)A/B/=c | B>AG/F/ G/A<TFE/ | (E6 | %162
 (E6) | (E6) | (E3) E)A/G/F/E/ | DA,/B,/A, A,F/E/D/F/ | EA,/B,/A, A,G/F/E/G/ | %167
 F/G/A/B/G/A/ F/G/A/B/G/A/ | F/G/A/F/G/A/ B,/C/D/B,/C/D/ | (E3 E/)F/G/E/F/G/ | C/D/E/C/D/E/ (A,3 | %171
 A,/)B,/C/A,/B,/C/ F,/G,/A,/F,/G,/A,/ | D,3 D/E/F/D/E/F/ | B,/C/D/B,/C/D/ E/F/G/E/F/G/ | %174
 C/D/E/C/D/E/ F/G/A/F/G/A/ | D/E/F/D/E/F/ G3 | G/F/G/A/F/G/ E/F/G/A/F/G/ | EA,/B,/A, A,G/F/E/G/ | %178
 (TF6 | F)G,/A,/E, E,F/E/D/F/ | (TE6 | E)F,/G,/F, F,E/D/C/E/ | (TD6 | D)E,/F,/E, E,D/C/B,/D/ | %184
 TC6 | z A,/B,/A, A,F/E/D/F/ | EA,/B,/A, A,G/F/E/G/ | F/G/A/B/G/A/ F/G/A/B/G/A/ | %188
 F/G/A/F/G/A/ G/A/B/G/A/B/ | (E3 E/)F/G/E/F/G/ | C/D/E/C/D/E/ (A,3 | %191
 A,/)B,/C/A,/B,/C/ F,/G,/A,/F,/G,/A,/ | D,3 D,/E,/F,/D,/E,/F,/ | %193
 G,/A,/B,/G,/A,/B,/ E,/F,/G,/E,/F,/G,/ | A,/B,/C/A,/B,/C/ F,/G,/A,/F,/G,/A,/ | %195
 B,/=C/D/E/C/D/ B,/C/D/B,/C/D/ | G,/A,/B,/=C/A,/B,/ G,/A,/B,/G,/A,/B,/ | E,/F,/G,/E,/F,/G,/ F,A,D | %198
 CEC A,CE | (A6 | A)FD GEC | FDB, ECA, | DB,G, C/D/EA, | D/E<CD/ DF,/G,/F, | %204
 F,D/C/B,/D/ CF,/G,/F, | F,E/D/C/E/ D/E/F/G/E/F/ | D/E/F/G/E/F/ D/C/B,/A,/^G,/F,/ | ^G,CG, A,DA, | %208
 B, (B2 B/)A/^G/F/(G | G)F^E FC^E | F3 (D3 | D3) (C3 | C3) (B,3 | B,/)C/D/=E/C/D/ B,/C/D/B,/C/D/ | %214
 ^G,/A,/B,/C/A,/B,/ G,/A,/B,/G,/A,/B,/ | ^E,^D,/E,/C, C,A,/G,/F,/A,/ | %216
 ^D,C,/D,/B,, B,,B,/A,/^G,/B,/ | ^E,/F,/^G,/E,/F,/E,/ F,/G,<T^E,F,/ | F,2 z z ^G,^G,, | %219
 C,2 z z F,F,, | B,,2 z z CC, | F,2 z z B,B,, | E,2 z z C,C | D2 z z B,,B, | =C2 z z ^A,,^A, | %225
 B,2 z z B,B,, | B,,,2 z z EE, | E,,2 z z EE, | E,,2 z z EE, | E,,EE, ^G,,^G,G,, | %230
 =C,,=C,=F, ^D,^E,E,, | A,,E,/F,/E, E,C/B,/A,/C/ | B,E,/F,/E, E,D/C/B,/D/ | %233
 C/(E/C/A,/=G,/)(F,/ G,/)(E/C/A,/G,/)(F,/ | G,/)A,/A,/C/C/E/[K:tenor] (E/G/4F/4G/)E/C/A,/ | %235
 F/(A/F/D/=C/)(B,/ C/)(A/F/D/C/)(B,/ | =C/)D/D/F/F/A/ (A/=c/4B/4c/)A/F/D/ | %237
 B/(F/^D/B,/A,/)(G,/ A,/)(F/D/B,/A,/)(G,/ | A,/)B,/B,/^D/D/F/ (F/A/4G/4A/)F/D/B,/ | %239
 E,/(B,/E/G/)^A,/B,/ D,/(B,/D/F/)^A,/B,/ | C,/(B,/C/E/)^A,/B,/[K:bass] F,/(G,/4F,/4E,/D,/C,/E,/) | %241
 D,/(B,,/4C,/4D,/E,/F,/G,/ A,/B,/=C/)A,/F,/G,/ | %242
 B,/(B,/4=C/4D/)B,/F,/G,/ =C/(C/4D/4E/)(A,/4B,/4C/)A,/ | %243
 F/(=C/4D/4_E/)(A,/4B,/4C/)A,/ G/(=C/4D/4_E/)(A,/4B,/4C/)A,/ | %244
 A/(A/4G/4F/)(F/4E/4D/)(D/4=C/4 B,/)(B,/4=C/4D/)G,/D,/F,/ | G,,G,TA, B,2 z | D,A,TB, =C2 z | %247
 G,/A,/B,/=C/A,/B,/ G,/A,/B,/C/A,/B,/ | G,/A,/B,/A,/G,/F,/ E, z z | z A,/B,/A, A,F/E/D/F/ | %250
 EA,/B,/A, A,G/F/E/G/ | F/G/A/B/G/A/ F/G/A/B/G/A/ | F/G/A/G/A/B/ E/F/G/F/G/A/ | %253
 D/E/F/E/F/G/ C/D/E/D/E/F/ | B,/C/D/C/D/E/ CB,/A,/(D | D)TC3/2B,/4C/4 DF(B | B)E(A A)D(G | %257
 G)C(F F)B,(E | E/)D/C/B,/A,/G,/ A,/B,<E,D,/ | !fermata!D6 |] %260
V:2
 x6 | x6 | x6 | x6 |[K:tenor] x6 | x6 | x6 | x6 | x6 | x6 | x6 | x6 | x6 | x6 | x3[K:bass] x3 | %15
 x6 | x6 | x6 | x6 | x6 | x6 | x6 | x6 |][M:2/4][K:tenor] x4 | x4 | x4 | x4 | x4 | x4 | x4 | x4 | %31
 x4 | x4 | x4 | x4 | x4 | x4 | x4 | x4 | x4 | x4 | x4 | x4 | x4 | x4 | x4 | x3[K:tenor] x | x4 | %48
 x4 | x4 | x5/2[K:bass] x3/2 | x4 | x4 | x4 | x4 :| x4 |: x4 | x4 | x4 | x4 | x4 | x4 | x4 | %63
 x2[K:tenor] x2 | x4 | x4 | x4 | x4 | x4 | x4 | x4 | x4 | x4 | x4 | x4 | x4 | x4 | x4 | x4 | x4 | %80
 x4 | x4 | x4 | x4 | x4 | x4 | x4 | x4 | x4 | x4 | x4 | x4 | x4 | x4 | x4 | x4 | x4 | x4 | x4 | %99
 x4 | x4 | x4 | x4 |1 [D,F,A,]4 :|2 [D,F,A,]4 |][M:12/8][K:bass] x | x12 | x12 | x6[K:tenor] x6 | %109
 x12 | x12 | x12 | x12 | x12 | x12 | x12 | x12 | x12 | x12 | x12 | x12 | x12 | x12 | x12 | x12 | %125
 x12 | x12 | x12 | x12 | x12 | x12 | x12 | x12 | x12 | x11 |][M:6/8] x6 | x6 | x6 | x6 | x6 | x6 | %141
 x6 | x6 | x6 | x6 | x6 | x6 | x6 | x6 | x6 | x6 | x6 | x6 | x6 | x6 |[K:bass] x6 | x6 | x6 | x6 | %159
 x6 | x6 | x6 | x6 | x6 | x6 | x6 | x6 | x6 | x6 | x6 | x6 | x6 | x6 | x6 | x6 | x6 | x6 | x6 | %178
 x6 | x6 | x6 | x6 | x6 | x6 | x6 | x6 | x6 | x6 | x6 | x6 | x6 | x6 | x6 | x6 | x6 | x6 | x6 | %197
 x6 | x6 | x6 | x6 | x6 | x6 | x6 | x6 | x6 | x6 | x6 | x6 | x5 ^G | (A3 A3) | (^G3 G3) | (F3 F3) | %213
 ^E x5 | x6 | x6 | x6 | x6 | x6 | x6 | x6 | x6 | x6 | x6 | x6 | x6 | x6 | x6 | x6 | x6 | x6 | x6 | %232
 x6 | x6 | x3[K:tenor] x3 | x6 | x6 | x6 | x6 | x6 | x3[K:bass] x3 | x6 | x6 | x6 | x6 | x6 | x6 | %247
 x6 | x6 | x6 | x6 | x6 | x6 | x6 | x6 | x6 | x6 | x6 | x6 | [D,F,A,]6 |] %260
V:3
 z6 | d2 z A (B3/2c/4d/4) | (TFE/D/) ^G2 z2 | a2 z e f3/2^g/4a/4 | (cB/A/) a4 | %5
 (a2 a/)(^g/a/c'/ b/a/g/a/) | (^gf/e/) z2 z2 | z f d'/^e/^g/a/ b/d'/c'/b/ | (Ta^g/f/) (f4 | %9
 f2) z c d/f/e/f/ | (^GF/E/) e4 | (e2 e/)d/e/=g/ f/e/d/g/ | f/e/f/g/ Mc3 B | B2 z f (d3/2c/4B/4) | %14
 (^ga/b/) (e4 | e/)(e/f/=g/) c/(c/d/e/) (d/c/B/A/) | (fg/a/) (d4 | %17
 d/)(d/e/f/) (g/a/b/a/ g/f/e/d/) | (c2 c/)e/g/f/ e/d/e/c/ | d>e (d2 Tc>)d | d2 z A (B3/2c/4d/4) | %21
 (FE/D/) G3/2A/8G/8F/8G/8 TG>A | A6 |][M:2/4] f/g/ a2 (g/f/) | e/f/ g2 (f/e/) | f(dTcd) | %26
 (e/d/c/)B/ A/G/F/E/ | D/E/F/E/ D/F/A/d/ | c/d/e/d/ c/e/A/c/ | (d/A/)(f/A/) (e/A/)(d/A/) | %30
 (c/d/e/)d/ c/B/A/G/ | F/G/A/G/ D/F/A/=c/ | B/^c/d/B/ GD | G/A/B/G/ E/G/B/d/ | c/d/e/c/ Ae | %35
 a a2 g/f/ | g f2 f/e/ | fe/d/ f/e/d/c/ | d2 z2 | z/ F/^G/^A/ B/c/(d | d/)c/B/4c/4d/ ^G z | %41
 z/ ^G/A/B/ c/d/(e | e/)d/c/4d/4e/ A z | z/ A/B/c/ d/f/^g/a/ | b/a/^g/a/ b/g/e/g/ | a>b Tg>a | %46
 a/e/c/A/ (=g2 | g/)e/c/A/ (f2 | f/)d/B/^G/ (e2 | e/)c/A/F/ (d2 | d/)B/^G/E/ e/d/=c/B/ | %51
 =c/d/ e2 (d/c/) | B/=c/ d2 (c/B/) | d/^c/B/A/ E^G | [CEA]4 :| [CEA]4 |: e/f/ g2 (f/e/) | %57
 d/c/B/A/ B/c/d/e/ | f/g/a/b/ a/g/f/e/ | g/f/e/f/ d/f/e/g/ | (f/g/)(a/f/) (d/e/)(f/d/) | %61
 A/B/=c/B/ c/e/d/c/ | BgA!turn!f | gdg(b | b/)a/g/f/ (e/f/g/b/) | a^df(a | a/)g/f/e/ ^d/e/f/a/ | %67
 g/f/e/^d/ eB | e/f/ g2 (f/e/) | d/e/(f f/)(d/c/B/) | ^A/g/f/e/ dc/B/ | B/F/B/c/ d z | %72
 z/ d/B/c/ d/f/e/d/ | c/B/c/d/ c/B/A/^G/ | e/f/ ^g2 (f/e/) | d/c/B/A/ B/c/d/e/ | %76
 f/g/a/b/ a/g/f/e/ | g/f/e/f/ d/a/g/b/ | T^ef/c'/ b/a/^g/a/ | Tf4 | z f/g/ a z | z e/f/ g z | %82
 z [da][cg][df] | [EAe]2 z2 | f/g/ a2 (g/f/) | e/f/ g2 (f/e/) | f(dTcd) | (e/d/c/)B/ A/G/F/D/ | %88
 [DFA]d/c/ (d2 | d/)=c/B/c/ g/d/B/G/ | [EGB]e/^d/ (e2 | e/)=d/c/e/ a/e/c/e/ | f f2 (e/^d/) | %93
 e e2 (d/c/) | dc/B/ A/G/F/E/ | D2 z a | [fa][fa][eg][eg] | [eg][eg][df][df] | [df][df] dc/B/ | %99
 c/d/e/c/ A/B/c/e/ | d/e/ =f2 (e/d/) | c/d/ e2 (d/c/) | a(g/f/) (g/f/)(e/f/) |1 d4 :|2 d4 |] %105
[M:12/8] z | z12 | z6 z3 z z c | Pf>a^g f(f/4g/4a/g) d>cB TA^G/F/(f | %109
 f)e/^d/(e e)^d/4c/4^B/(c c/)a/^g/f/g/a/ (^B/c/^d/f/e/d/ | e/)(f/^g/b/a/g/ a)^Bc e>^dc c2 e | %111
 F3/2^G/4A/4B/c/ d/c/BPf e>Bc ^GF/E/(e | e)(^g/f/)(a/g/) (a3 a/)f/^g/a/(b b/)a/g/f/e/g/ | %113
 a>c'b aa/4b/4c'/b Pf>ed PcB/A/(a | a)=g/f/(g g)f/4e/4^d/(e e/)(=c'/b/a/b/c'/) (^d/e/f/a/g/f/) | %115
 g/a/b!turn!^d (e3 e/)f/^d/e/(f f/)g/a/f/g/e/ | a/=c'/b/a/b/^g/ e=g/f/e/^d/ bB^d e2 z | %117
 z6 z3 z z =d | f>ba g(g/4a/4b/a) e/4d/4=c/4d/4e/d/c MBA/G/(g | %119
 g)f/e/(f f)(e/4d/4c/)(d (d/)b/)(a/g/)(a/b/) (c/d/e/g/f/e/) | f/g/a!turn!c (d3 (d6) | %121
 d>)ce/d/ (e3 e/)(c/d/e/f/g/) a/(f/e/^d/c/B/) | %122
 (g/f/e/=d/c/B/) ^A3/2B/4c/4d/e/ f/^A/B(g g/)^e/f/^a/b/c'/ | %123
 d'/c'/b/=a/g/f/ (e/d/4c/4d/e/f/g/) cF z z z B | e>gf e(e/4f/4g/.f) f>ag f(f/4g/4a/.g) | %125
 g(g/4a/4b/.a) a(a/4b/4=c'/.b) Tg>fe (^c'3 | %126
 (c'3) c'/)(b/4^a/4b/c'/d'/b/) (g3 g/)(f/e/d/c/d/4e/4) | ^A2 z z3 z3 z z f | %128
 b>d'c' b(b/4c'/4d'/.c') g>fe dc/B/(b | b)a/g/(a a)g/4f/4e/(f f)e/^d/(e e)=d/4=c/4B/(c | %130
 c/)g/f/e/f/g/ ^A/B/d/e/d/c/ B>^AB A/g/f/e/d/c/ | (TB6 (B6) | %132
 (B3) B/)^A/c/B/(c c/)d/F^A (B/=A/4G/4F/E/D/C/) | B>dc B(B/4c/4d/.c) c>ed c(c/4d/4e/.d) | %134
 ^d(d/4e/4f/.e) ^e(e/4f/4^g/.f) T=d>cB !fermata![DFB]2 |][M:6/8] z A/B/A Af/e/d/f/ | %136
 eA/B/A Ag/f/e/g/ | f/g/a/b/g/a/ f/g/a/b/g/a/ | f/g/a/g/a/b/ c/d/e/c/d/e/ | Ad!turn!e f2 z | %140
 Ae!turn!f g2 z | d/e/f/g/e/f/ d/e/f/g/e/f/ | (Td3 d) (Tc2 | c) (B2 B) (TA2 | %144
 A) (TG2 G/)E/F/G/A/G/ | A/B/A/G/F/E/ F/A/B/c/d/c/ | d!turn!e(f f/)B/c/d/e/d/ | %147
 e/f/e/d/c/B/ c/d/e/d/e/f/ | B/c/d/c/d/e/ A/B/c/B/c/d/ | ^G/A/B/A/B/c/ F/^G/A/G/A/B/ | %150
 ^GF/E/(A A/)B<T^GF/4G/4 | A/e/ab c'2 z | ebc' d'2 z | a/b/c'/d'/b/c'/ a/b/c'/d'/b/c'/ | %154
 ^a/b/c'/a/b/c'/ b/=g/f/e/d/c/ | BF/G/F Fd/c/B/d/ | cF/G/F Fe/d/c/e/ | d/e/f/g/e/f/ d/e/f/g/e/f/ | %158
 (d3 d)Be | cea{g} (f3 | f/)^d/B/d/e/d/ e/f<T^df/ | eE/F/E Ec/B/A/c/ | BE/F/E Ed/c/B/d/ | %163
 c/d/e/f/d/e/ c/d/e/f/d/e/ | c/d/e/d/e/f/ g/f/g/b/a/g/ | f/e/f/g/f/e/ (Td3 | (d3) d/)e/f/g/e/f/ | %167
 d/e/f/g/e/f/ d/e/f/g/e/f/ | d/e/f/d/e/f/ (g3 | g/)a/b/g/a/b/ (e3 | e/)f/g/e/f/g/ c/d/e/c/d/e/ | %171
 (A3 A/)B/=c/A/B/c/ | F/G/A/F/G/A/ (D3 | D/)E/F/D/E/F/ G/A/B/G/A/B/ | E/F/G/E/F/G/ A/B/c/A/B/c/ | %175
 F/G/A/F/G/A/ B/c/d/B/c/d/ | c/d/e/f/d/e/ c/d/e/f/d/e/ | c2 z z2 z | ad/e/d d=c'/b/a/c'/ | (b6 | %180
 b)c/d/c cb/a/^g/b/ | (a6 | a)B/c/B Ba/g/f/a/ | (Tg6 | g)A/B/A Ag/f/e/g/ | f/A/dTe f2 z | %186
 Ae!turn!f g2 z | d/e/f/g/e/f/ d/e/f/g/e/f/ | d/e/f/d/e/f/ (e3 | e/)f/g/e/f/g/ c/d/e/c/d/e/ | %190
 (A3 A/)B/c/A/B/c/ | F/G/A/F/G/A/ D3 | d/e/f/d/e/f/ B/c/d/B/c/d/ | e/f/g/e/f/g/ c/d/e/c/d/e/ | %194
 f/g/a/f/g/a/ d/e/f/d/e/f/ | g/a/b/=c'/a/b/ g/a/b/g/a/b/ | e/f/g/a/f/g/ e/f/g/e/f/g/ | %197
 c/d/e/c/d/e/ d/c/d/e/f/d/ | g/f/g/e/f/g/ c/e/a/e/c/A/ | d/e/f/g/e/f/ d/e/f/g/e/f/ | (Td3 d) (Tc2 | %201
 c) (MB2 B) (MA2 | A) (MG2 G>)BA/G/ | F/4G/4A<ED/ D2 z | z FF F2 z | z F/G/F FBM^A | %206
 BF!turn!^A B2 z | z c/d/c ca/^g/f/a/ | ^gc/d/c cb/a/^g/b/ | a/b/c'/d'/b/c'/ a/b/c'/d'/b/c'/ | %210
 a/b/c'/a/b/c'/ d/e/f/d/e/f/ | ^g/a/b/g/a/b/ c/d/e/c/d/e/ | f/^g/a/f/g/a/ B/c/d/B/c/d/ | %213
 ^G/A/B/c/A/B/ G/A/B/G/A/B/ | ^E/F/^G/A/F/G/ E/F/G/E/F/G/ | C2 z z [CFAc][CFAc] | %216
 [^DFAc] z z z BB | B>cA/^G/ A/B<TGF/ | F/c/A/F/f/A/ z z/ f/e/^d/ | e>ce/ =G/ z z/ e/d/c/ | %220
 d/f/d/B/b/d/ z z/ b/a/^g/ | a>fa/ =c/ z z/ a/g/f/ | g/^d/e/g/=c/ B/ z/ ^c/e/g/f/e/ | %223
 f/c/d/f/B/ =A/ z/ B/d/=f/e/d/ | e/B/=c/e/A/ =G/ z/ ^A/^c/e/d/c/ | ^d/f/B/ =A/G/F/ z/ B/e/f/g/e/ | %226
 a/f/^d/ =c/B/A/ b/^g/e/ =d/=c/B/ | z/ =c'/b/a/^g/a/ z/ e/=f/ =d/=c/B/ | %228
 z/ e/a/b/=c'/a/ d'/b/^g/ =f/e/d/ | z/ d/e/^f/^g/a/ d/e/=f/ =c/B/A/ | %230
 z/ =f/e/d/=c/B/ =c/a/B/a/=d/^g/ | a/e/A!turn!B c2 z | E/F/^G/A/B/c/ d/e/f/a/^g/b/ | cAc e=ge | %234
 cAE CA, e | edf a=c'a | fdA FD [fa] | [fa]B^d faf | ^dBF ^DB, a | g/e/B/e/g f/d/B/d/f | %240
 e/c/^A/B/c/d/ e/d/c/B/E | cBd f^a ^c | Bgd e (=c2 | =c) (Tc2 (c3) | =c/)B/c/d/e/f/ g d=c | %245
 BD/E/D DB/A/G/B/ | AD/E/D D=c/B/A/c/ | B/=c/d/e/c/d/ B/c/d/e/c/d/ | B/^c/d/e/f/g/ c/d/c/B/A/G/ | %249
 F/A/d!turn!e f2 z | Ae!turn!f g2 z | d/e/f/g/e/f/ d/e/f/g/e/f/ | (Td3 d) (Tc2 | c) (TB2 B) (TA2 | %254
 A) (TG2 G/)E/F/G/A/G/ | A/B/A/G/F/E/ F/A/d/e/f/g/ | e/f/g/f/g/a/ d/e/f/e/f/g/ | %257
 c/d/e/d/e/f/ B/c/d/c/d/e/ | cA(d d/)e<cd/ | !fermata!d6 |] %260
V:4
 D,DF,DG,D | D,DF,DG,D | D,F,B,,B,E,^G, | A,,A,C,A,D,A, | A,,A,C,A,D,A, | A,,C,F,,F,B,,B, | %6
 E,^G,C,=G,^A,,F, | B,,D,^G,,D,^E,,C, | F,,C,A,,F,B,,D, | F,C,A,,F,B,,D, | E,,B,,C,D,E,C, | %11
 F,F,,G,,G,D,B,, | E,C,F,E,F,F,, | B,,B,^A,F,B,D | E,F,^G,B,E,G, | %15
 A,A,, z/ (E,/F,/=G,/) A,/(A,/B,/C/) | DD, z/ (A,,/B,,/C,/) D,/(D,/E,/F,/) | G,G,, z G,E,G, | %18
 A,G,F,G,A,F, | B,G,A,G,A,A,, | D,DF,DG,D | D,F,B,,D,E,E,, | A,,6 |] %23
[M:2/4] D3/2A,/4G,/4F,/4G,/4A,/D, | A,3/2E,/4D,/4C,/4D,/4E,/A,, | D,2 z D,, | %26
 A,,A,/G,/ F,/E,/D,/C,/ | D,D,,/E,,/ F,,D,, | A,,C,/B,,/ A,,A, | D,2 z/ E,/F,/D,/ | %30
 A,A,, z/ A,,/B,,/C,/ | D,/E,/ F,2 (E,/D,/) | G,/A,/(B, B,/)(A,/G,/F,/) | E,/F,/ G,2 (F,/E,/) | %34
 A,/B,/(C C/)(B,/A,/G,/) | F,/G,/A,/F,/ ^D,/F,/B,,/B,/ | E,/F,/G,/E,/ C,/E,/A,,/A,/ | %37
 D,/E,/F,/G,/ A,A,, | D,E,F,E, | D,D/C/ B,/A,/^G,/F,/ | E,E,, B,,E,/D,/ | E,E/D/ C/B,/A,/^G,/ | %42
 F,F,, C,F,/E,/ | F,/E,/D,/C,/ B,,/A,,/^G,,/F,,/ | E,,E,/D,/ C,B,, | A,,D,E,E,, | %46
 A,,(A, A,/)E/C/A,/ | D(D, D,/)D/B,/^G,/ | C(C, C,/)C/A,/F,/ | B,(B,, B,,/)F,/D,/B,,/ | E,F,^G,E, | %51
 A,3/2E,/4D,/4=C,/4D,/4E,/A,, | E,3/2B,,/4A,,/4^G,,/4A,,/4B,,/E,, | A,,D,E,E,, | %54
 A,,/E,/F,/=G,/ A,/B,/C/A,/ :| A,,4 |: A,3/2E,/4D,/4C,/4D,/4E,/A,, | A,2 z/ G,/F,/E,/ | %58
 D,B,,C,A,, | D,A,,F,,A,, | D,3/2A,,/4G,,/4F,,/4G,,/4A,,/D,, | B,,2 z/ =C,/B,,/A,,/ | G,,B,,=C,D, | %63
 G,,/A,,/ B,,2 (A,,/G,,/) | =C,/D,/ E,2 (D,/C,/) | F,/G,/ A,2 (G,/F,/) | B,/C/ ^D2 (C/B,/) | %67
 E/F/(G G/)(F/E/=D/) | C/D/E/C/ ^A,/C/F,/A,/ | B,/C/D/B,/ G,/B,/E,/G,/ | C,D,/E,/ F,F,, | %71
 B,,B,,, z/ B,,/C,/D,/ | E,E,, z/ E,/F,/^G,/ | A,F,D,E, | A,,E,, A,,,/E,/F,/G,/ | %75
 A,A,, z/ A,/B,/C/ | DB,G,A, | D,2 z/ C,/D,/B,,/ | C,F,,C,C,, | F,,/A,,/C,/^E,/ F,/A,/B,/C/ | %80
 D/E/F/D/ A,/F/E/D/ | C/D/E/C/ A,/E/D/C/ | D/A,/F,/A,/ E,/A,/D,/A,/ | E,/A,/A,,/A,/ B,,/A,/C,/A,/ | %84
 B,,D,,/E,,/ F,,D,, | A,,C,/B,,/ A,,A, | D,2 z/ E,/F,/D,/ | A,A,, z/ A,,/B,,/C,/ | %88
 D,/E,/ F,2 (E,/D,/) | G,A,/(B,/ B,/)(A,/G,/F,/) | E,/F,/ G,2 (F,/E,/) | A,/B,/(C C/)(B,/A,/G,/) | %92
 F,/G,/A,/F,/ ^D,/F,/B,,/B,/ | E,/F,/G,/E,/ C,/E,/A,,/A,/ | D,/E,/F,/G,/ A,A,, | %95
 z/ D,/F,/A,/ D/A,/F,/D,/ | G,(G,, G,,/)G,/E,/C,/ | F,(F,, F,,/)F,/D,/B,,/ | %98
 E,(E,, E,,/)B,,/G,,/E,,/ | A,,B,,C,B,, | D,3/2A,,/4G,,/4=F,,/4G,,/4A,,/D,, | %101
 A,3/2E,/4D,/4C,/4D,/4E,/A,, | DG,A,A,, |1 D,/A,,/B,,/C,/ D,/E,/F,/D,/ :|2 D,/A,,/F,,/A,,/ D,,2 |] %105
[M:12/8] z | B,,B,A, G,F,E,"_6       5" ^A,3 B,CD | ^E,C,F, B,,C,D,"_" ^G,,A,,B,, C,>^D,^E, | %108
 F,2 C, D,C,B,, C,2 C,, F,,F,^D, | ^B,,^G,,C, F,^G,A, ^D,E,F, ^G,^B,G, | %110
 C,>^D,^E, F,^G,A, =E,>F,^G, C,E,C, | A,,F,,A,, B,,A,,^G,, C,F,D, E,D,/C,/D,/B,,/ | %112
 C,D,E, F,E,D, E,2 E,, A,,A,^G, | F,E,D, C,B,,A,, ^G,,F,,G,, A,,B,,C, | %114
 ^D,,B,,E, A,B,=C F,=G,A, B,B,,^D, | E,G,B, ^CB,A, B,B,,^D, E,E,,E, | %116
 F,^G,E, A,A,,A, =G,>A,B, E,E,,=D, | C,^A,,F,, B,,D,B,, E,F,D, G,G,,F,, | %118
 E,,B,,C, E,=C,A,, D,2 D,, G,,G,/F,/E,/D,/ | ^C,A,,D, G,,A,,B,, E,,F,,G,, A,,>B,,C, | %120
 D,F,A, B,B,,/A,,/G,,/F,,/ G,,E,,F,, G,,E,,A,, | B,,A,,B,, C,B,,C, D,F,A, ^D,B,,D, | %122
 E,G,E, C,E,C, D,G,E, F,F,, z | z B,A, G,F,E, F,F,,F,/G,/ A,G,F, | %124
 G,A,B, ^C=C,/B,,/A,,/G,,/ A,,F,,G,, A,,F,,B,, | %125
 =C,B,,^C, D,C,^D, E,/B,/E/=D/C/B,/ ^A,/B,/C/E/D/C/ | DB,F, D,C,B,, E,G,B, EFG | %127
 ^EF,B, E,F,_A, C,D,E, F,^G,^A, | B,D,F, G,F,E, F,2 F,, B,,B,G, | %129
 E,F,D, G,C,^D, E,C,B,, ^A,,B,,E,, | D,,2 D, C,B,,^A,, B,,G,,^E,, F,,F,=E, | %131
 D,B,A, G,F,G, E,G,F, E,F,^G, | A,F,=G, ^G,B,^A, B,D,F, B,,D,F, | G,B,A, G,F,G, E,G,F, E,F,^G, | %134
 A,F,=G, ^G,B,^A, B,D,F, !fermata!B,,2 |][M:6/8] D,F,A, D/E/D/C/B,/D/ | %136
 C/B,/C/D/C/B,/ A,/G,/A,/B,/C/A,/ | DF,A, DF,A, | DB,G, A,CA, | DB,G, D,/E,/D,/C,/B,,/D,/ | %140
 C,/B,,/C,/D,/C,/B,,/ A,,/G,,/A,,/B,,/C,/A,,/ | D,F,,A,, D,F,,A,, | D,F,G, A,E,F, | G,D,E, F,C,D, | %144
 E,B,,E, A,,G,,F,, | G,,A,,A,,, D,,D,C, | B,,C,D, E,D,C, | D,E,E,, A,,/B,,/C,/B,,/C,/D,/ | %148
 E,B,,/A,,/B,,/C,/ D,A,,/^G,,/A,,/B,,/ | C,^G,,/F,,/G,,/A,,/ B,,F,,B,, | E,D,C, D,E,E,, | %151
 A,,C,E, A,/B,/A,/^G,/F,/A,/ | ^G,/F,/G,/A,/G,/F,/ E,/D,/E,/F,/^G,/E,/ | A,C,E, A,C,E, | %154
 =G,E,F, B,,2 z | B,,D,F, B,/C/B,/^A,/^G,/B,/ | ^A,/^G,/A,/B,/A,/G,/ F,/E,/F,/^G,/^A,/F,/ | %157
 B,D,F, B,D,F, | B,,/C,/D,/B,,/C,/D,/ E,/F,/^G,/E,/F,/G,/ | %159
 A,,/B,,/C,/A,,/B,,/=C,/ ^F,,/G,,/A,,/^D,,/E,,/F,,/ | G,,G,=C A,B,B,, | %161
 E,/F,/E,/=D,/^C,/B,,/ A,,/B,,/A,,/^G,,/F,,/A,,/ | %162
 ^G,,/F,,/G,,/A,,/G,,/F,,/ E,,/D,,/E,,/F,,/^G,,/E,,/ | %163
 A,,/B,,/C,/D,/B,,/C,/ A,,/B,,/C,/D,/B,,/C,/ | A,,/B,,/C,/B,,/C,/D,/ E,/D,/C,/A,,/B,,/C,/ | %165
 D,DE F/E/D/C/B,/A,/ | G,/F,/E,/D,/C,/B,,/ A,,F,,A,, | D,,2 z =C,2 z | B,,B,A, G,/A,/B,/G,/A,/B,/ | %169
 E,/F,/G,/E,/F,/G,/ C,/D,/E,/C,/D,/E,/ | A,,3 A,/B,/C/A,/B,/C/ | F,/G,/A,/F,/G,/A,/ (D,3 | %172
 D,/)E,/F,/D,/E,/F,/ B,,/C,/D,/B,,/C,/D,/ | (G,,3 G,,)F,,E,, | (A,,3 A,,)G,,F,, | %175
 (B,,3 B,,)A,,G,, | A,,6 | A,/B,/C/D/B,/C/ A,/B,/C/D/B,/C/ | %178
 D,/E,/F,/G,/E,/F,/ D,/E,/F,/G,/E,/F,/ | G,/A,/B,/=C/A,/B,/ G,/A,/B,/C/A,/B,/ | %180
 ^C,/D,/E,/F,/D,/E,/ C,/D,/E,/F,/D,/E,/ | F,/G,/A,/B,/G,/A,/ F,/G,/A,/B,/G,/A,/ | %182
 B,,/C,/D,/E,/C,/D,/ B,,/C,/D,/E,/C,/D,/ | E,/F,/G,/A,/F,/G,/ E,/F,/G,/A,/F,/G,/ | %184
 A,,/B,,/C,/D,/B,,/C,/ A,,/B,,/C,/D,/B,,/C,/ | D,F,A, D/E/D/C/B,/D/ | %186
 C/B,/C/D/C/B,/ A,/G,/A,/B,/C/A,/ | DF,A, DF,A, | ^CA,B, E,/F,/G,/E,/F,/G,/ | %189
 C,/D,/E,/C,/D,/E,/ A,,3 | A,/B,/C/A,/B,/C/ F,/G,/A,/F,/G,/A,/ | (D,3 D,/)E,/F,/D,/E,/F,/ | %192
 B,,/C,/D,/B,,/C,/D,/ (G,,3 | G,,)F,,E,, (A,,3 | A,,)G,,F,, B,,=C,D, | (G,,6 | (G,,3) G,,)F,,E,, | %197
 A,,A,,/B,,/A,, A,,F,/E,/D,/F,/ | E,A,,/B,,/A,, A,,G,/F,/E,/G,/ | %199
 F,/G,/A,/B,/G,/A,/ F,/G,/A,/B,/G,/A,/ | F,/G,/A,/G,/A,/B,/ E,/F,/G,/F,/G,/A,/ | %201
 D,/E,/F,/E,/F,/G,/ C,/D,/E,/D,/E,/F,/ | B,,/C,/D,/C,/D,/E,/ A,,/B,,/C,/B,,/C,/D,/ | %203
 G,,A,,/G,,/A,, D,,2 z | z B,,B, ^A,2 z | z F,^A, B,/C/D/E/C/D/ | B,/C/D/E/C/D/ B,/C/D/B,/C/D/ | %207
 (C3 C) (D2 | D) (^G,2 G,3) | F,A,C F,A,C | F,/^G,/A,/F,/G,/A,/ B,/C/D/B,/C/D/ | %211
 E,/F,/^G,/E,/F,/G,/ A,/B,/C/A,/B,/C/ | D,/E,/F,/D,/E,/F,/ ^G,/A,/B,/G,/A,/B,/ | (C,6 | (C,6) | %215
 C,/)D,/C,/B,,/A,,/^G,,/ A,,F,,A,, | B,,/C,/^D,/E,/D,/C,/ B,,^G,,B,, | C,/^D,/^E,/C,/F, B,,C,C,, | %218
 F,, z z ^B,/^D/^G/ z/ z | C/E/^G/ z/ z ^A,/C/F/ z/ z | B, z z ^E/^G/c/ z/ z | %221
 F/A/c/ z/ z ^D/F/B/ z/ z | E z z [^C^A] z z | D z z [B,^G] z z | =C z z [^A,F] z z | %225
 B, z z G z z | [B,^DF] z z [=D^G] z z | [^DA] z z [E^g] z z | [E=c] z z [E^GB] z z | %229
 [E=c] z z z z z | [D^G] z z ^DEE, | A,C,E, A,,A,/^G,/F,/A,/ | ^G,/A,/B,/A,/G,/F,/ E,2 E,, | %233
 A,,2 z z2 z | z2 z z2 A,, | A, z z z2 z | z2 z z2 D, | [F,B,] z z z2 z | z2 z z2 B, | %239
 E,EE, D,DD, | C,2 z z F,F,, | B,,2 z z2 [D,A,] | [G,,G,] z z z2 E,, | D,,A,F, _E,=C,A,, | %244
 F,,D,,D, G,,B,,D, | G,,B,,D, G,/A,/G,/F,/E,/G,/ | F,/E,/F,/G,/F,/E,/ D,/=C,/D,/E,/F,/D,/ | %247
 G,B,,D, G,B,,D, | G,F,E, A,/B,/A,/G,/F,/E,/ | D,F,A, D/E/D/C/B,/D/ | %250
 C/B,/C/D/C/B,/ A,/G,/A,/B,/C/A,/ | DF,A, DF,A, | D,/E,/F,/E,/F,/G,/ A,E,/D,/E,/F,/ | %253
 G,D,/C,/D,/E,/ F,C,/B,,/C,/D,/ | E,B,,E, A,,G,,F,, | G,,A,,A,,, D,/C,/B,,/C,/D,/E,/ | %256
 C,/D,/E,/A,,/B,,/C,/ B,,/C,/D,/G,,/A,,/B,,/ | A,,/B,,/C,/F,,/G,,/A,,/ G,,/A,,/B,,/E,,/F,,/G,,/ | %258
 A,,/B,,/A,,/G,,/F,,/E,,/ F,,/G,,/A,,A,,, | !fermata!D,,6 |] %260
V:5
 x6 | x6 | x6 | x6 | x6 | x6 | x6 | x6 | x6 | x6 | x6 | x6 | x6 | x6 | x6 | x6 | x6 | x6 | x6 | %19
 x6 | x6 | x6 | x6 |][M:2/4] x4 | x4 | x4 | x4 | x4 | x4 | x4 | x4 | x4 | x4 | x4 | x4 | z c (B2 | %36
 B)B (A2 | A2) x2 | [FA]2 x2 | x4 | x4 | x4 | x4 | x4 | x4 | x4 | x4 | x4 | x4 | x4 | x4 | x4 | %52
 x4 | x3 D | x4 :| x4 |: x4 | x4 | x4 | x4 | x4 | x4 | x4 | x4 | x4 | x4 | x4 | x4 | x4 | x4 | x4 | %71
 DD/E/ F z | x4 | x4 | [Ac] [Ace]2 x | x4 | x4 | x4 | x4 | x4 | z d/e/ f z | z c/d/ e z | z AAA | %83
 x4 | x4 | x4 | x4 | x4 | x4 | x4 | x4 | x4 | z [Ac][FB] z | z [GB][EA] z | x4 | x3 [df] | d=cBd | %97
 ^cBA=c | BA (G2 | G/) x7/2 | x4 | x4 | x4 |1 [FA]4 :|2 [FA]4 |][M:12/8] x | x12 | x12 | x12 | %109
 x12 | x12 | x12 | x12 | x12 | x12 | x12 | x12 | x12 | x12 | x12 | x12 | x12 | x12 | x12 | x12 | %125
 x12 | x12 | x12 | x12 | x12 | x12 | x12 | x12 | x12 | x11 |][M:6/8] x6 | x6 | x6 | x6 | x6 | x6 | %141
 x6 | x6 | x6 | x6 | x6 | x6 | x6 | x6 | x6 | x6 | x6 | x6 | x6 | x6 | x6 | x6 | x6 | x6 | x6 | %160
 x6 | x6 | x6 | x6 | x6 | x6 | x6 | x6 | x6 | x6 | x6 | x6 | x6 | x6 | x6 | x6 | x6 | x6 | x6 | %179
 x6 | x6 | x6 | x6 | x6 | x6 | x6 | x6 | x6 | x6 | x6 | x6 | x6 | x6 | x6 | x6 | x6 | x6 | x6 | %198
 x6 | x6 | x6 | x6 | x6 | x6 | z DD [CE]2 z | z [^A,C]C D x2 | x6 | x6 | x6 | x6 | x6 | x6 | x6 | %213
 x6 | x6 | x6 | x4 [=D^FG][DFG] | [C^E^G]3/2 x9/2 | x6 | x6 | x6 | x6 | x6 | x6 | x6 | x6 | x6 | %227
 x6 | x6 | x6 | x3 [^FA] x2 | ^c x5 | x6 | a x5 | x5 [GAc] | [FA] z z x3 | x5 [=cd] | x6 | %238
 x5 [B^df] | B x5 | x5 [^Ac] | [DF] x4 [DFA] | [DG] x2 z2 (A | [FA]) x5 | x4 [DGB][DFA] | [DG] x5 | %246
 x6 | x6 | x6 | x6 | x6 | x6 | x6 | x6 | x6 | x6 | x6 | x6 | x6 | [FA]6 |] %260
V:6
 x6 | x6 | x6 | x6 | x6 | x6 | x6 | x6 | x6 | x6 | x6 | x6 | x6 | x6 | x6 | x6 | x6 | x6 | x6 | %19
 x6 | x6 | x6 | x6 |][M:2/4] x4 | x4 | x4 | x4 | x4 | x4 | x4 | x4 | x4 | x4 | x4 | x4 | x4 | x4 | %37
 x4 | x4 | x4 | x4 | x4 | x4 | x4 | x4 | x4 | x4 | x4 | x4 | x4 | x4 | x4 | x4 | x4 | x4 :| x4 |: %56
 x4 | x4 | x4 | x4 | x4 | x4 | x4 | x4 | x4 | x4 | x4 | x4 | x4 | x4 | x4 | x4 | x4 | x4 | x4 | %75
 x4 | x4 | x4 | x4 | x4 | x4 | x4 | x4 | x4 | x4 | x4 | x4 | x4 | x4 | x4 | x4 | x4 | x4 | x4 | %94
 x4 | x4 | x4 | x4 | x2 (e2 | e/) x7/2 | x4 | x4 | x4 |1 x4 :|2 x4 |][M:12/8] x | x12 | x12 | x12 | %109
 x12 | x12 | x12 | x12 | x12 | x12 | x12 | x12 | x12 | x12 | x12 | x12 | x12 | x12 | x12 | x12 | %125
 x12 | x12 | x12 | x12 | x12 | x12 | x12 | x12 | x12 | x11 |][M:6/8] x6 | x6 | x6 | x6 | x6 | x6 | %141
 x6 | x6 | x6 | x6 | x6 | x6 | x6 | x6 | x6 | x6 | x6 | x6 | x6 | x6 | x6 | x6 | x6 | x6 | x6 | %160
 x6 | x6 | x6 | x6 | x6 | x6 | x6 | x6 | x6 | x6 | x6 | x6 | x6 | x6 | x6 | x6 | x6 | x6 | x6 | %179
 x6 | x6 | x6 | x6 | x6 | x6 | x6 | x6 | x6 | x6 | x6 | x6 | x6 | x6 | x6 | x6 | x6 | x6 | x6 | %198
 x6 | x6 | x6 | x6 | x6 | x6 | x6 | x6 | x6 | x6 | x6 | x6 | x6 | x6 | x6 | x6 | x6 | x6 | x6 | %217
 x6 | x6 | x6 | x6 | x6 | x6 | x6 | x6 | x6 | x6 | x6 | x6 | x6 | x6 | x6 | x6 | x6 | x6 | x6 | %236
 x6 | x6 | x6 | x6 | x6 | x6 | x6 | x6 | x6 | x6 | x6 | x6 | x6 | x6 | x6 | x6 | x6 | x6 | x6 | %255
 x6 | x6 | x6 | x6 | x6 |] %260
V:7
 x6 | x6 | x6 | x6 | x6 | x6 | x6 | x6 | x6 | x6 | x6 | x6 | x6 | x6 | x6 | x6 | x6 | x6 | x6 | %19
 x6 | x6 | x6 | x6 |][M:2/4] x4 | x4 | x4 | x4 | x4 | x4 | x4 | x4 | x4 | x4 | x4 | x4 | x4 | x4 | %37
 x4 | x4 | x4 | x4 | x4 | x4 | x4 | x4 | x4 | x4 | x4 | x4 | x4 | x4 | x4 | x4 | x4 | x4 :| x4 |: %56
 x4 | x4 | x4 | x4 | x4 | x4 | x4 | x4 | x4 | x4 | x4 | x4 | x4 | x4 | x4 | x4 | x4 | x4 | x4 | %75
 x4 | x4 | x4 | x4 | x4 | x4 | x4 | x4 | x4 | x4 | x4 | x4 | x4 | x4 | x4 | x4 | x4 | x4 | x4 | %94
 x4 | x4 | x4 | x4 | x4 | x4 | x4 | x4 | x4 |1 x4 :|2 x4 |][M:12/8] x | x12 | x12 | x12 | x12 | %110
 x12 | x12 | x12 | x12 | x12 | x12 | x12 | x12 | x12 | x12 | x12 | x12 | x12 | x12 | x12 | x12 | %126
 x12 | x12 | x12 | x12 | x12 | x12 | x12 | x12 | x11 |][M:6/8] x6 | x6 | x6 | x6 | x6 | x6 | x6 | %142
 x6 | x6 | x6 | x6 | x6 | x6 | x6 | x6 | x6 | x6 | x6 | x6 | x6 | x6 | x6 | x6 | x6 | x6 | x6 | %161
 x6 | x6 | x6 | x6 | x6 | x6 | x6 | x6 | x6 | x6 | x6 | x6 | x6 | x6 | x6 | x6 | x6 | x6 | x6 | %180
 x6 | x6 | x6 | x6 | x6 | x6 | x6 | x6 | x6 | x6 | x6 | x6 | x6 | x6 | x6 | x6 | x6 | x6 | x6 | %199
 x6 | x6 | x6 | x6 | x6 | x6 | x6 | x6 | [^E,^G,]3 ([F,A,]3 | [F,B,]3) ([^E,C]3 | C) x5 | x6 | x6 | %212
 x6 | x6 | x6 | x6 | x6 | x6 | x6 | x6 | x6 | x6 | x6 | x6 | x6 | x6 | x6 | x6 | x6 | x6 | x6 | %231
 x6 | x6 | x6 | x6 | D, x5 | x6 | ^D, x5 | x5 B,, | x6 | x6 | x6 | x6 | x6 | x6 | x6 | x6 | x6 | %248
 x6 | x6 | x6 | x6 | x6 | x6 | x6 | x6 | x6 | x6 | x6 | x6 |] %260

